X: 10020
T: Dhu Hill, The
R: jig
M: 6/8
K: Amajor
F2A cdc|BAG Bcd|c2c fed|cBc F3:|
cBc ABc|dcd B3|cBc f2f|cAF F3:|
f2d dcB|ABG FGA|B2B cBc|d3 A3|
f2d dcB|ABG FGA|B2B cBc|dcB ABG||

